X:4
T:Retrograde Inversion
M:3/2
L:1/2
Q:1/2=100
K:Bb
%%MIDI gchord f2z2c2z2c2z2
%%MIDI program 1 41 % Viola
[K:bass]
B,2|"Eb"E,B,,E,|"Gm"D,B,,C,/<D,/|"Eb"E,2B,,|B,,
w: |IV          |vi          |IV
[K:treble]
B2|(3c/B/A/G/B/E/G/|"Gm"F/E/F/G/A/B/|"Eb"c/B/A/G/F/E/|GGA/<B/|(3c/B/A/Bc|"Gm"BGA/<B/|"Eb"eeB|G
BA/<G/|(3A/B/c/BA|"Gm"(3G/A/B/ED|"Eb"EEF/<G/|BE2|EEF/<G/|"Gm"BBA/<G/|"Eb"EE2|G
B2|eBe|"Gm"dBc/<d/|"Eb"eB2|BB2|AGF/<E/|"Gm"FGA/<B/|"Eb"AGF/<G/|B

